img/icon-work.svg

<svg xmlns="http://www.w3.org/2000/svg" preserveAspectRatio="xMidYMid" width="13" height="16" viewBox="0 0 13 16"><path d="M12.878 5.037L8.538.204C8.418.07 8.276 0 8.082 0H1.818C.82 0 .005.803.005 1.787v12.42c0 .983.816 1.788 1.813 1.788h9.372c.997 0 1.813-.805 1.813-1.79V5.49c.01-.187-.01-.325-.125-.453zM8.65 1.947l2.43 2.706H9.376c-.393 0-.726-.327-.726-.715v-1.99zm2.54 12.976H1.818c-.393 0-.725-.328-.725-.716V1.787c0-.387.332-.715.725-.715h5.744v2.866c0 .984.816 1.788 1.814 1.788h2.54v8.48c0 .39-.333.717-.726.717z" id="path-1" class="cls-2" fill-rule="evenodd"/></svg>

<svg xmlns="http://www.w3.org/2000/svg" xmlns:xlink="http://www.w3.org/1999/xlink" preserveAspectRatio="xMidYMid" width="13" height="16" viewBox="0 0 13 16">
  <defs>
    <style>

      .cls-2 {
        fill: #d35136;
      }
    </style>
  </defs>
  <path d="M12.878,5.037 C12.878,5.037 8.538,0.204 8.538,0.204 C8.419,0.071 8.276,-0.001 8.082,-0.001 C8.082,-0.001 1.818,-0.001 1.818,-0.001 C0.821,-0.001 0.005,0.804 0.005,1.788 C0.005,1.788 0.005,14.207 0.005,14.207 C0.005,15.191 0.821,15.996 1.818,15.996 C1.818,15.996 11.190,15.996 11.190,15.996 C12.187,15.996 13.003,15.191 13.003,14.207 C13.003,14.207 13.003,5.489 13.003,5.489 C13.013,5.303 12.993,5.165 12.878,5.037 ZM8.650,1.947 C8.650,1.947 11.080,4.653 11.080,4.653 C11.080,4.653 9.376,4.653 9.376,4.653 C8.983,4.653 8.650,4.326 8.650,3.938 C8.650,3.938 8.650,1.947 8.650,1.947 ZM11.190,14.923 C11.190,14.923 1.818,14.923 1.818,14.923 C1.425,14.923 1.093,14.595 1.093,14.207 C1.093,14.207 1.093,1.788 1.093,1.788 C1.093,1.400 1.425,1.072 1.818,1.072 C1.818,1.072 7.562,1.072 7.562,1.072 C7.562,1.072 7.562,3.938 7.562,3.938 C7.562,4.922 8.378,5.726 9.376,5.726 C9.376,5.726 11.915,5.726 11.915,5.726 C11.915,5.726 11.915,14.207 11.915,14.207 C11.915,14.595 11.583,14.923 11.190,14.923 Z" id="path-1" class="cls-2" fill-rule="evenodd"/>
</svg>
